svg/furkot/mapbox-maki/square-stroke.svg

<svg viewBox="0 0 512 512" xmlns="http://www.w3.org/2000/svg"><path d="m460.801 51.201v409.6h-409.6v-409.6zm11.815-51.201h-433.23c-21.753 0-39.386 17.633-39.386 39.386v433.23c0 21.752 17.633 39.384 39.386 39.384h433.23c21.752 0 39.384-17.632 39.384-39.384v-433.23c0-21.753-17.632-39.386-39.384-39.386z"/></svg>

<svg viewBox="0 0 512 512" xmlns="http://www.w3.org/2000/svg"><path d="M 460.801 51.201 L 460.801 460.801 L 51.201 460.801 L 51.201 51.201 L 460.801 51.201 M 472.616 0 L 39.386 0 C 17.633 0 0 17.633 0 39.386 L 0 472.616 C 0 494.368 17.633 512 39.386 512 L 472.616 512 C 494.368 512 512 494.368 512 472.616 L 512 39.386 C 512 17.633 494.368 0 472.616 0 L 472.616 0 Z"/></svg>
